X:22
T:Pas d'\'et\'e \`a l'Henri Caillaux
T:Polka d'Auvergne
T:Auvergne Polka
R:misc
O:Auvergne, France
Z:id:hn-misc-22
M:2/4
L:1/8
K:G
DE/F/ GG | F/G/A/F/ G2 | A/B/c/A/ BG | A/B/c/A/ B/G/F/E/ |
DE/F/ GG | F/G/A/F/ G2 | A/B/c/A/ Bd | d/c/B/A/ G2 :|
|: dB G/B/d/B/ | G/B/d/B/ cA | cA F/A/c/A/ | F/A/c/A/ BG |
dB G/B/d/B/ | G/B/d/B/ cA | cA F/A/c/A/ | F/A/c/A/ G2 :|

